!!!OTL: 589. Jaegerlied.
!!!COM: Volksweise
!!!ODT: 1827
!!!ARE: Europa, Mitteleuropa, Deutschland
!!!SCT: B0589
!!!TXL: @@DE
!!!YEM: Copyright 1995, estate of Helmut Schaffrath.
**kern	**text
*ICvox	*
*Ivox	*
*clefG2	*
*M6/8	*
*k[]	*
*C:	*
!LO:TX:a:t=Lebhaft.	!
{8g	Jm
=1	=1
4g	Wald
8g	und
4g	auf
8g	der
=2	=2
4.g	Hei-
4e}	-de
{8g	da
=3	=3
4cc	ſuch'
8cc	ich
8ccL	mei-
8bJ	.
8cc	-ne
=4	=4
(4ee	Freu-
8dd)	.
8ccL	-de;
8bJ}	.
{8a	ich
=5	=5
4g	bin
8g	ein
8gL	Jä-
8aJ	.
8b	-gers-
=6	=6
[4.cc	-mann,
8cc]	.
8r}	.
{8g	ich
=7	=7
4g	bin
8g	ein
8gL	Jä-
8aJ	.
8b	-gers-
=8	=8
[4.cc	-mann.
8cc]	.
8r}	.
{8g	Die
=9	=9
4g	For-
8g	-ſten
4g	treu
8g	ʒu
=10	=10
(4g	he-
8ee)	.
4cc}	-gen,
{8b	das
=11	=11
4a	Wild-
8a	-pret
4a	ʒu
8a	er-
=12	=12
(4a	-le-
8ff)	.
4dd}	-gen,
{8cc	mein'
=13	=13
4b	Luſt
8b	hab'
8bL	ich
8ccJ	.
8dd	da-
=14	=14
(4.ee	-ran.
8ffL)	.
8eeJ}	,
{8dd	Mein'
=15	=15
4cc	Luſt
8cc	hab'
4b	ich
8b	da-
=16	=16
4.cc	-ran.
4r}	.
{8g	Hal-
=17	=17
8gL	-li,
8eJ	.
8g	hal-
4cc	-lo!
8cc	hal-
=18	=18
8ccL	-li,
8gJ	.
8cc	hal-
4ee}	-lo!
{8ee	Mein'
=19	=19
4dd	Luſt
8dd	hab'
4b	ich
8b	da-
=20	=20
[4.cc	-ran.
8cc]	.
8r}	.
{8g	Hal-
=21	=21
8gL	-li,
8eJ	.
8g	hal-
4cc	-lo!
8cc	hal-
=22	=22
8ccL	-li,
8gJ	.
8cc	hal-
4ee}	-lo!
{8ee	Mein'
=23	=23
4dd	Luſt
8dd	hab'
4b	ich
8b	da-
=24	=24
[4.cc	-ran.
8cc]	.
8r}	.
==	==
!!!AGN: Staende -, Jaeger - Lied
!!!GTL: Jägerlieder
!!!ONB: ESAC (Essen Associative Code) Database: BOEHME
!!!AMT: compound duple
!!!AIN: vox
!!!EED: Helmut Schaffrath
!!!EEV: 1.0
!!@@COMMENT:"Gedicht von Wilhelm Bornemann 1616. Ʒuerſt in "Hartig's Forſt- und Jagdarchiv von
!!und für Preußen". 1. Jahrg. 2. Heft (Berlin 1816). S. 134. Anfang: "Jn grünbelaubter
!!Heide, da ſuch' ich meine Freude" rc. Mel. ſeit 1827 bekannt, gilt als Volksweiſe; ſoll von
!!F. L. Gehrike ſein. Das Lied iſt Volkslied geworden und in vielen Varianten in Taſchenlieder-
!!büchern ʒu finden. Hier iſt nach Erk's Germania Nr. 353 möglichſt das Original wieder bergeſtellt.
!!Bei Fink ʒwei Lesarten, davon die erſte die verbreitetere iſt."
!!@@END:
!!!Text: W. Bornemann
!!!URL-scan: https://archive.org/details/BoehmeVtLieder1895/page/n467/mode/2up
!!!ENC: Anna Maria Matuszewska
!!!EEV: 2024/12/07
*-	*-
